main/images/icons/server.svg

<?xml version="1.0" encoding="iso-8859-1"?>
<!-- Generator: Adobe Illustrator 19.0.0, SVG Export Plug-In . SVG Version: 6.00 Build 0)  -->
<svg xmlns="http://www.w3.org/2000/svg" xmlns:xlink="http://www.w3.org/1999/xlink" version="1.1" id="Capa_1" x="0px" y="0px" viewBox="0 0 60 60" style="enable-background:new 0 0 60 60;" xml:space="preserve" width="512px" height="512px">
<g>
	<path d="M43.534,43.22c-0.287,0.008-0.574,0.014-0.861,0.019c-0.055,0.001-0.11,0.002-0.166,0.003   c-0.336,0.005-0.672,0.007-1.007,0.007c-0.336,0-0.673-0.003-1.01-0.007c-0.045-0.001-0.091-0.002-0.136-0.003   c-0.298-0.005-0.595-0.011-0.893-0.02c-0.021,0-0.042-0.001-0.062-0.002C32.549,43.015,25.761,41.822,22,39.699v3.551v0.375V44   v2.091c2.138,2.156,9.602,4.159,19.5,4.159c8.708,0,15.527-1.551,18.5-3.391V44v-0.375V43.25v-3.041   c-3.887,1.802-10.103,2.82-16.373,3.008C43.596,43.218,43.565,43.219,43.534,43.22z" fill="#FFFFFF"/>
	<path d="M22,30.695v3.555v0.375V35v2.074c0.052,0.052,0.098,0.105,0.157,0.157c0.044,0.04,0.087,0.08,0.135,0.12   C24.8,39.4,32.198,41.25,41.5,41.25c8.548,0,15.485-1.563,18.5-3.405V35v-0.375V34.25V31.2c-4.331,2-11.552,3.05-18.5,3.05   C33.987,34.25,26.151,33.023,22,30.695z" fill="#FFFFFF"/>
	<path d="M22,48.699V53c0,0.15,0.036,0.294,0.1,0.422C23.147,57.742,32.312,60,41,60c8.672,0,17.816-2.249,18.895-6.553   C59.962,53.313,60,53.161,60,53v-3.791c-4.326,2.006-11.54,3.041-18.5,3.041C33.971,52.25,26.146,51.04,22,48.699z" fill="#FFFFFF"/>
	<path d="M41,18.25c-8.69,0-17.89,2.302-18.904,6.584C22.037,24.962,22,25.1,22,25.25v0.375v2.449   c2.153,2.155,9.779,4.176,19.5,4.176c8.548,0,15.485-1.563,18.5-3.405v-3.22V25.25c0-0.145-0.036-0.28-0.094-0.404   C58.906,20.556,49.698,18.25,41,18.25z" fill="#FFFFFF"/>
	<path d="M55.392,0H4.608C2.067,0,0,2.067,0,4.608v11.783C0,17.365,0.314,18.26,0.835,19h24.016c3.974-1.805,9.935-2.75,15.693-2.75   c5.758,0,11.718,0.946,15.692,2.75h2.928C59.686,18.26,60,17.365,60,16.392V4.608C60,2.067,57.933,0,55.392,0z M10.5,15   C8.019,15,6,12.981,6,10.5S8.019,6,10.5,6S15,8.019,15,10.5S12.981,15,10.5,15z M34,10c-0.552,0-1-0.448-1-1s0.448-1,1-1   s1,0.448,1,1S34.552,10,34,10z M36,13c-0.552,0-1-0.448-1-1s0.448-1,1-1s1,0.448,1,1S36.552,13,36,13z M38,10c-0.552,0-1-0.448-1-1   s0.448-1,1-1s1,0.448,1,1S38.552,10,38,10z M40,13c-0.552,0-1-0.448-1-1s0.448-1,1-1s1,0.448,1,1S40.552,13,40,13z M42,10   c-0.552,0-1-0.448-1-1s0.448-1,1-1s1,0.448,1,1S42.552,10,42,10z M44,13c-0.552,0-1-0.448-1-1s0.448-1,1-1s1,0.448,1,1   S44.552,13,44,13z M46,10c-0.552,0-1-0.448-1-1s0.448-1,1-1s1,0.448,1,1S46.552,10,46,10z M48,13c-0.552,0-1-0.448-1-1s0.448-1,1-1   s1,0.448,1,1S48.552,13,48,13z M50,10c-0.552,0-1-0.448-1-1s0.448-1,1-1s1,0.448,1,1S50.552,10,50,10z M52,13c-0.552,0-1-0.448-1-1   s0.448-1,1-1s1,0.448,1,1S52.552,13,52,13z" fill="#FFFFFF"/>
	<path d="M20,38c0-0.156,0-3,0-3v-0.375V34.25v-3.555v-2.621v-2.449V25.25c0-0.15,0.037-0.288,0.096-0.416   c0.365-1.541,1.801-2.821,3.881-3.834H0.835C0.314,21.74,0,22.635,0,23.608v11.783C0,36.365,0.314,37.26,0.835,38H20z M10.5,25   c2.481,0,4.5,2.019,4.5,4.5S12.981,34,10.5,34S6,31.981,6,29.5S8.019,25,10.5,25z" fill="#FFFFFF"/>
	<path d="M22.718,56.569c-1.386-0.883-2.324-1.933-2.618-3.147C20.036,53.294,20,53.15,20,53v-4.301v-2.607V44v-0.375V43.25V40   H0.835C0.314,40.74,0,41.635,0,42.608v11.783C0,56.937,2.063,59,4.608,59h17.469c0.011,0,0.021,0,0.032,0   C23.376,58.982,23.786,57.249,22.718,56.569z M10.5,53C8.019,53,6,50.981,6,48.5S8.019,44,10.5,44s4.5,2.019,4.5,4.5   S12.981,53,10.5,53z" fill="#FFFFFF"/>
</g>
<g>
</g>
<g>
</g>
<g>
</g>
<g>
</g>
<g>
</g>
<g>
</g>
<g>
</g>
<g>
</g>
<g>
</g>
<g>
</g>
<g>
</g>
<g>
</g>
<g>
</g>
<g>
</g>
<g>
</g>
</svg>

<?xml version="1.0" encoding="UTF-8"?>
<svg width="60px" height="60px" viewBox="0 0 60 60" version="1.1" xmlns="http://www.w3.org/2000/svg" xmlns:xlink="http://www.w3.org/1999/xlink">
    <!-- Generator: Sketch 46.2 (44496) - http://www.bohemiancoding.com/sketch -->
    <title>server</title>
    <desc>Created with Sketch.</desc>
    <defs></defs>
    <g id="Page-1" stroke="none" stroke-width="1" fill="none" fill-rule="evenodd">
        <g id="server" fill-rule="nonzero" fill="#FFFFFF">
            <path d="M43.534,43.22 C43.247,43.228 42.96,43.234 42.673,43.239 C42.618,43.24 42.563,43.241 42.507,43.242 C42.171,43.247 41.835,43.249 41.5,43.249 C41.164,43.249 40.827,43.246 40.49,43.242 C40.445,43.241 40.399,43.24 40.354,43.239 C40.056,43.234 39.759,43.228 39.461,43.219 C39.44,43.219 39.419,43.218 39.399,43.217 C32.549,43.015 25.761,41.822 22,39.699 L22,43.25 L22,43.625 L22,44 L22,46.091 C24.138,48.247 31.602,50.25 41.5,50.25 C50.208,50.25 57.027,48.699 60,46.859 L60,44 L60,43.625 L60,43.25 L60,40.209 C56.113,42.011 49.897,43.029 43.627,43.217 C43.596,43.218 43.565,43.219 43.534,43.22 Z" id="Shape"></path>
            <path d="M22,30.695 L22,34.25 L22,34.625 L22,35 L22,37.074 C22.052,37.126 22.098,37.179 22.157,37.231 C22.201,37.271 22.244,37.311 22.292,37.351 C24.8,39.4 32.198,41.25 41.5,41.25 C50.048,41.25 56.985,39.687 60,37.845 L60,35 L60,34.625 L60,34.25 L60,31.2 C55.669,33.2 48.448,34.25 41.5,34.25 C33.987,34.25 26.151,33.023 22,30.695 Z" id="Shape"></path>
            <path d="M22,48.699 L22,53 C22,53.15 22.036,53.294 22.1,53.422 C23.147,57.742 32.312,60 41,60 C49.672,60 58.816,57.751 59.895,53.447 C59.962,53.313 60,53.161 60,53 L60,49.209 C55.674,51.215 48.46,52.25 41.5,52.25 C33.971,52.25 26.146,51.04 22,48.699 Z" id="Shape"></path>
            <path d="M41,18.25 C32.31,18.25 23.11,20.552 22.096,24.834 C22.037,24.962 22,25.1 22,25.25 L22,25.625 L22,28.074 C24.153,30.229 31.779,32.25 41.5,32.25 C50.048,32.25 56.985,30.687 60,28.845 L60,25.625 L60,25.25 C60,25.105 59.964,24.97 59.906,24.846 C58.906,20.556 49.698,18.25 41,18.25 Z" id="Shape"></path>
            <path d="M55.392,0 L4.608,0 C2.067,0 0,2.067 0,4.608 L0,16.391 C0,17.365 0.314,18.26 0.835,19 L24.851,19 C28.825,17.195 34.786,16.25 40.544,16.25 C46.302,16.25 52.262,17.196 56.236,19 L59.164,19 C59.686,18.26 60,17.365 60,16.392 L60,4.608 C60,2.067 57.933,0 55.392,0 Z M10.5,15 C8.019,15 6,12.981 6,10.5 C6,8.019 8.019,6 10.5,6 C12.981,6 15,8.019 15,10.5 C15,12.981 12.981,15 10.5,15 Z M34,10 C33.448,10 33,9.552 33,9 C33,8.448 33.448,8 34,8 C34.552,8 35,8.448 35,9 C35,9.552 34.552,10 34,10 Z M36,13 C35.448,13 35,12.552 35,12 C35,11.448 35.448,11 36,11 C36.552,11 37,11.448 37,12 C37,12.552 36.552,13 36,13 Z M38,10 C37.448,10 37,9.552 37,9 C37,8.448 37.448,8 38,8 C38.552,8 39,8.448 39,9 C39,9.552 38.552,10 38,10 Z M40,13 C39.448,13 39,12.552 39,12 C39,11.448 39.448,11 40,11 C40.552,11 41,11.448 41,12 C41,12.552 40.552,13 40,13 Z M42,10 C41.448,10 41,9.552 41,9 C41,8.448 41.448,8 42,8 C42.552,8 43,8.448 43,9 C43,9.552 42.552,10 42,10 Z M44,13 C43.448,13 43,12.552 43,12 C43,11.448 43.448,11 44,11 C44.552,11 45,11.448 45,12 C45,12.552 44.552,13 44,13 Z M46,10 C45.448,10 45,9.552 45,9 C45,8.448 45.448,8 46,8 C46.552,8 47,8.448 47,9 C47,9.552 46.552,10 46,10 Z M48,13 C47.448,13 47,12.552 47,12 C47,11.448 47.448,11 48,11 C48.552,11 49,11.448 49,12 C49,12.552 48.552,13 48,13 Z M50,10 C49.448,10 49,9.552 49,9 C49,8.448 49.448,8 50,8 C50.552,8 51,8.448 51,9 C51,9.552 50.552,10 50,10 Z M52,13 C51.448,13 51,12.552 51,12 C51,11.448 51.448,11 52,11 C52.552,11 53,11.448 53,12 C53,12.552 52.552,13 52,13 Z" id="Shape"></path>
            <path d="M20,38 C20,37.844 20,35 20,35 L20,34.625 L20,34.25 L20,30.695 L20,28.074 L20,25.625 L20,25.25 C20,25.1 20.037,24.962 20.096,24.834 C20.461,23.293 21.897,22.013 23.977,21 L0.835,21 C0.314,21.74 0,22.635 0,23.608 L0,35.391 C0,36.365 0.314,37.26 0.835,38 L20,38 Z M10.5,25 C12.981,25 15,27.019 15,29.5 C15,31.981 12.981,34 10.5,34 C8.019,34 6,31.981 6,29.5 C6,27.019 8.019,25 10.5,25 Z" id="Shape"></path>
            <path d="M22.718,56.569 C21.332,55.686 20.394,54.636 20.1,53.422 C20.036,53.294 20,53.15 20,53 L20,48.699 L20,46.092 L20,44 L20,43.625 L20,43.25 L20,40 L0.835,40 C0.314,40.74 0,41.635 0,42.608 L0,54.391 C0,56.937 2.063,59 4.608,59 L22.077,59 C22.088,59 22.098,59 22.109,59 C23.376,58.982 23.786,57.249 22.718,56.569 Z M10.5,53 C8.019,53 6,50.981 6,48.5 C6,46.019 8.019,44 10.5,44 C12.981,44 15,46.019 15,48.5 C15,50.981 12.981,53 10.5,53 Z" id="Shape"></path>
        </g>
    </g>
</svg>
